polaris-icons/icons/new-icons/VolumeMinor.svg

<svg width="20" height="20" viewBox="0 0 20 20" fill="none" xmlns="http://www.w3.org/2000/svg">
<path fill-rule="evenodd" clip-rule="evenodd" d="M13.5 5V8.04217C13.5 8.34563 13.5461 8.64734 13.6366 8.93699L15.1886 13.9035C15.591 15.1913 14.6289 16.5 13.2796 16.5H6.72039C5.37111 16.5 4.40897 15.1913 4.81143 13.9035L6.36345 8.93699C6.45396 8.64734 6.50001 8.34563 6.50001 8.04217V5H6C5.58579 5 5.25 4.66421 5.25 4.25C5.25 3.83579 5.58579 3.5 6 3.5H14C14.4142 3.5 14.75 3.83579 14.75 4.25C14.75 4.66421 14.4142 5 14 5H13.5ZM8.00001 8.04217V5H12V7.25H11.25C10.8358 7.25 10.5 7.58579 10.5 8C10.5 8.41421 10.8358 8.75 11.25 8.75H12.056C12.0902 8.96448 12.1399 9.17651 12.2048 9.3844L12.4753 10.25L7.52467 10.25L7.79517 9.3844C7.93094 8.94993 8.00001 8.49736 8.00001 8.04217ZM7.05592 11.75L12.9441 11.75L13.7569 14.3509C13.8575 14.6728 13.6169 15 13.2796 15H6.72039C6.38307 15 6.14253 14.6728 6.24315 14.3509L7.05592 11.75Z" fill="#4A4A4A"/>
</svg>

<svg viewBox="0 0 20 20" xmlns="http://www.w3.org/2000/svg"><path fill-rule="evenodd" d="M13.5 5v3.042a3 3 0 0 0 .137.895l1.552 4.966a2 2 0 0 1-1.91 2.597h-6.559a2 2 0 0 1-1.909-2.597l1.552-4.966a3 3 0 0 0 .137-.895v-3.042h-.5a.75.75 0 0 1 0-1.5h8a.75.75 0 0 1 0 1.5h-.5Zm-5.5 3.042v-3.042h4v2.25h-.75a.75.75 0 0 0 0 1.5h.806c.034.214.084.427.149.634l.27.866h-4.95l.27-.866a4.5 4.5 0 0 0 .205-1.342Zm-.944 3.708h5.888l.813 2.6a.5.5 0 0 1-.477.65h-6.56a.5.5 0 0 1-.477-.65l.813-2.6Z" fill="#5C5F62"/></svg>
